svg/services.svg

<svg xmlns="http://www.w3.org/2000/svg" viewBox="0 0 32 32" enable-background="new 0 0 32 32"><path d="M 21.5 2.5 L 21.5 3.90625 C 20.663243 4.0535741 19.887374 4.372549 19.21875 4.84375 L 18.1875 3.875 L 16.8125 5.34375 L 17.8125 6.28125 C 17.361761 6.9371285 17.049529 7.6862154 16.90625 8.5 L 15.5 8.5 L 15.5 10.5 L 16.90625 10.5 C 17.052122 11.328511 17.379936 12.085907 17.84375 12.75 L 16.78125 13.78125 L 18.21875 15.21875 L 19.25 14.15625 C 19.914093 14.620064 20.671489 14.947878 21.5 15.09375 L 21.5 16.5 L 23.5 16.5 L 23.5 15.09375 C 24.313785 14.950471 25.062871 14.638239 25.71875 14.1875 L 26.65625 15.1875 L 28.125 13.8125 L 27.15625 12.78125 C 27.627451 12.112626 27.946426 11.336757 28.09375 10.5 L 29.5 10.5 L 29.5 8.5 L 28.09375 8.5 C 27.947878 7.6714893 27.620064 6.9140926 27.15625 6.25 L 28.09375 5.3125 L 26.6875 3.90625 L 25.75 4.84375 C 25.085907 4.379936 24.328511 4.0521222 23.5 3.90625 L 23.5 2.5 L 21.5 2.5 z M 22.5 5.8125 C 24.555298 5.8125 26.1875 7.444702 26.1875 9.5 C 26.1875 11.555298 24.555298 13.1875 22.5 13.1875 C 20.444702 13.1875 18.8125 11.555298 18.8125 9.5 C 18.8125 7.444702 20.444702 5.8125 22.5 5.8125 z M 9.53125 11.71875 L 7.6875 12.46875 L 8.40625 14.28125 C 7.4544116 14.850462 6.6397578 15.64876 6.0625 16.59375 L 4.28125 15.875 L 3.53125 17.71875 L 5.3125 18.4375 C 5.178895 18.966111 5.09375 19.52425 5.09375 20.09375 C 5.09375 20.66325 5.178895 21.220162 5.3125 21.75 L 3.53125 22.46875 L 4.28125 24.3125 L 6.0625 23.59375 C 6.6408571 24.55339 7.4456124 25.360573 8.40625 25.9375 L 7.6875 27.71875 L 9.53125 28.46875 L 10.25 26.6875 C 10.783009 26.822186 11.333376 26.90625 11.90625 26.90625 C 12.47575 26.90625 13.033889 26.821105 13.5625 26.6875 L 14.28125 28.46875 L 16.125 27.71875 L 15.40625 25.9375 C 16.35124 25.360242 17.149538 24.545588 17.71875 23.59375 L 19.53125 24.3125 L 20.28125 22.46875 L 18.46875 21.75 C 18.601129 21.220162 18.6875 20.66325 18.6875 20.09375 C 18.6875 19.52425 18.601129 18.966111 18.46875 18.4375 L 20.28125 17.71875 L 19.53125 15.875 L 17.71875 16.59375 C 17.148394 15.652791 16.350516 14.852038 15.40625 14.28125 L 16.125 12.46875 L 14.28125 11.71875 L 13.5625 13.53125 C 13.032141 13.397617 12.476928 13.3125 11.90625 13.3125 C 11.33675 13.3125 10.779838 13.398871 10.25 13.53125 L 9.53125 11.71875 z M 11.90625 15.3125 C 14.569061 15.3125 16.6875 17.430939 16.6875 20.09375 C 16.6875 22.756562 14.569061 24.90625 11.90625 24.90625 C 9.2434382 24.90625 7.09375 22.756562 7.09375 20.09375 C 7.09375 17.430939 9.2434382 15.3125 11.90625 15.3125 z"/></svg>

<svg xmlns="http://www.w3.org/2000/svg" viewBox="0 0 32 32"><path d="M21.5 2.5v1.406c-.837.148-1.613.467-2.28.938l-1.032-.97-1.375 1.47 1 .937c-.45.657-.763 1.406-.907 2.22H15.5v2h1.406c.146.83.474 1.586.938 2.25l-1.063 1.03 1.44 1.44 1.03-1.064c.664.464 1.42.792 2.25.938V16.5h2v-1.406c.814-.144 1.563-.456 2.22-.906l.936 1 1.47-1.376-.97-1.03c.47-.67.79-1.445.938-2.282H29.5v-2h-1.406c-.146-.83-.474-1.586-.938-2.25l.938-.938-1.407-1.406-.937.938c-.664-.464-1.42-.792-2.25-.938V2.5h-2zm1 3.313c2.055 0 3.688 1.632 3.688 3.687 0 2.055-1.633 3.688-3.688 3.688s-3.688-1.633-3.688-3.688 1.633-3.688 3.688-3.688zM9.53 11.718l-1.842.75.718 1.81c-.952.57-1.766 1.37-2.344 2.314l-1.78-.72-.75 1.845 1.78.718c-.133.528-.218 1.086-.218 1.656 0 .57.085 1.126.218 1.656l-1.78.72.75 1.843 1.78-.72c.58.96 1.384 1.768 2.344 2.345l-.72 1.78 1.845.75.72-1.78c.533.134 1.083.218 1.656.218.57 0 1.128-.085 1.656-.218l.72 1.78 1.843-.75-.72-1.78c.946-.578 1.745-1.392 2.314-2.344l1.81.718.75-1.843-1.81-.72c.13-.53.218-1.087.218-1.656 0-.57-.087-1.128-.22-1.657l1.813-.718-.75-1.845-1.81.72c-.572-.942-1.37-1.743-2.314-2.314l.72-1.81-1.845-.75-.717 1.81c-.53-.132-1.086-.217-1.657-.217-.57 0-1.126.086-1.656.218l-.72-1.81zm2.376 3.592c2.663 0 4.78 2.12 4.78 4.782.002 2.663-2.117 4.812-4.78 4.812-2.663 0-4.812-2.15-4.812-4.812 0-2.663 2.15-4.782 4.812-4.782z"/></svg>
